icons/op-cut-24.svg

<svg width="24" height="24" viewBox="0 0 24 24" fill="none" xmlns="http://www.w3.org/2000/svg">
<path d="M17.765 14.0625C16.9242 13.1562 16.0534 12.6875 15.1825 12.6875C14.2817 12.6875 13.591 13.1562 13.1406 13.625L12.9604 13.4062L13.3508 12.8438L15.2426 11.625L17.9452 7.0625V4L12.0596 12.125L6.17403 4V7.0625L8.84656 11.625L10.6783 12.8438L11.0987 13.4375L10.9185 13.6562C10.4681 13.1875 9.77744 12.6875 8.87659 12.6875C7.97573 12.6875 7.10491 13.1562 6.26411 14.0625C4.82275 15.6562 4.82275 17.4375 5.24315 18.5C5.63352 19.4375 6.53437 20 7.34514 20C7.73551 20 9.02673 19.0625 9.08678 18.9688L9.77744 17.9062L12.0296 14.7188L14.3718 18L15.0624 19.0625C15.1225 19.0938 16.3236 20 16.744 20C17.5548 20 18.3656 19.4375 18.7259 18.5C19.1763 17.4375 19.2064 15.6562 17.765 14.0625ZM7.85562 18.0312C7.37516 18.625 6.86468 18.5312 6.59443 17.9062C6.3542 17.2812 6.38423 16.1562 7.34514 15.125C7.88565 14.5312 8.39613 14.2188 8.84656 14.2188C9.35704 14.2188 9.74741 14.5625 9.98764 14.8438L9.29698 15.9062L9.02673 16.2812V16.3125L7.85562 18.0312ZM17.4347 17.9062C17.2845 18.25 17.0743 18.4688 16.8341 18.4688C16.6539 18.4688 16.4137 18.3125 16.2335 18.0938L15.0624 16.375V16.2812L14.2216 15.1562L14.0415 14.8438C14.2817 14.5625 14.7021 14.2188 15.1825 14.2188C15.633 14.2188 16.1435 14.5312 16.684 15.125C17.6449 16.1562 17.7049 17.2812 17.4347 17.9062Z" fill="black"/>
</svg>

<svg xmlns="http://www.w3.org/2000/svg" width="24" height="24" viewBox="0 0 24 24"><path d="M17.765 14.062c-.841-.906-1.712-1.374-2.583-1.374-.9 0-1.591.468-2.041.937l-.181-.219.391-.562 1.892-1.219 2.702-4.563V4l-5.885 8.125L6.174 4v3.062l2.673 4.563 1.831 1.219.421.594-.181.218c-.45-.468-1.141-.968-2.041-.968-.901 0-1.772.468-2.613 1.374-1.441 1.594-1.441 3.376-1.021 4.438.391.938 1.291 1.5 2.102 1.5.391 0 1.682-.938 1.742-1.031l.69-1.063 2.253-3.187L14.372 18l.69 1.062c.061.032 1.262.938 1.682.938.811 0 1.622-.562 1.982-1.5.45-1.062.48-2.844-.961-4.438Zm-9.909 3.969c-.481.594-.991.5-1.262-.125-.24-.625-.21-1.75.751-2.781.541-.594 1.051-.906 1.502-.906.51 0 .9.343 1.141.625l-.691 1.062-.27.375v.031l-1.171 1.719Zm9.579-.125c-.15.344-.361.563-.601.563-.18 0-.42-.157-.601-.375l-1.171-1.719v-.094l-.84-1.125-.181-.312c.241-.282.661-.625 1.141-.625.451 0 .961.312 1.502.906.961 1.031 1.021 2.156.751 2.781Z"/></svg>
